usr/share/icons/biglinux-icons-material/16/actions/list-add-font.svg

<svg xmlns="http://www.w3.org/2000/svg" viewBox="0 0 16 16">
  <defs id="defs3051">
    <style type="text/css" id="current-color-scheme">
      .ColorScheme-Text {
        color:#363636;
      }
      </style>
  </defs>
 <path style="fill:currentColor;fill-opacity:1;stroke:none" 
     d="m2 2v12h2v-5h5v-2h-5v-3h8v-2h-8zm9 7v2h-2v1h2v2h1v-2h2v-1h-2v-2z"
     class="ColorScheme-Text"
     />
</svg>

<svg xmlns="http://www.w3.org/2000/svg" viewBox="0 0 16 16"><path d="M2 2v12h2V9h5V7H4V4h8V2H4zm9 7v2H9v1h2v2h1v-2h2v-1h-2V9z" style="fill:currentColor;fill-opacity:1;stroke:none;color:#dedede"/></svg>
